assets/img/favicon.svg

<svg fill="none" height="500" viewBox="0 0 500 500" width="500" xmlns="http://www.w3.org/2000/svg" xmlns:xlink="http://www.w3.org/1999/xlink"><clipPath id="a"><path d="m68 56h364v387.634h-364z"/></clipPath><rect fill="#f0e600" height="488" rx="110" width="488" x="6" y="6"/><g clip-path="url(#a)" clip-rule="evenodd" fill-rule="evenodd"><path d="m187.891 117.441c7.019-8.779 14.108-16.566 21.056-23.1095.228-.2397 23.649-24.548 62.338-38.2311.582-.2008 1.232-.1037 1.72.2591s.743.9397.674 1.5292c-.55 4.7036-1.628 13.8707-1.628 13.8707 8.191.8747 15.769 4.3731 19.124 6.1159.439.2397.74.6545.816 1.1275.077.4794-.079.9651-.423 1.315-2.535 2.6239-7.604 7.8395-7.613 7.846 9.118 7.5995 18.62 17.5572 27.995 29.2772 4.434-.304 8.508-.778 12.188-1.503 6.568-1.296 11.734-3.194 14.849-7.081 4.388-5.468 4.257-14.0333.854-27.2175 0 0-2.039-7.9039-3.339-12.9378-.184-.7192.07-1.4772.65-1.9307.579-.46 1.375-.5313 2.028-.1879 4.601 2.4295 11.818 6.2389 11.818 6.2389 44.87 23.6862 59.216 49.251 52.466 76.417-2.061 8.292-9.728 16.332-21.927 22.954-5.212 2.831-11.288 5.481-17.979 7.943 22.365 2.682 51.026 6.115 63.447 7.605 1.641.195 3.103 1.083 3.985 2.411.883 1.334 1.093 2.973.573 4.47-6.595 19.203-25.567 33.1-47.917 33.1-4.381 0-8.633-.538-12.689-1.542 7.439 21.833 19.896 65.188 14.923 131.388-.032.434-.281.823-.669 1.056-.389.234-.869.272-1.293.11-3.975-1.529-13.08-5.034-13.08-5.034-3.221 16.398-8.943 29.44-11.198 34.182-.198.389-.601.655-1.056.68-.455.033-.893-.168-1.146-.531-2.39-3.395-7.36-10.463-7.36-10.463l-.028-.058c-28.475 41.956-89.127 66.024-100.13 66.024s-70.22-23.77-100.158-65.966c0 0-4.97 7.068-7.359 10.463-.255.363-.692.564-1.147.531-.455-.025-.858-.291-1.056-.68-2.255-4.742-7.977-17.784-11.198-34.182 0 0-9.105 3.505-13.08 5.034-.424.162-.905.124-1.293-.11-.388-.233-.637-.622-.67-1.056-4.982-66.329 7.485-109.555 14.924-131.388-4.056 1.004-8.308 1.542-12.689 1.542-22.3503 0-41.3219-13.897-47.9172-33.1-.5196-1.497-.3097-3.136.5727-4.47.8824-1.328 2.3446-2.216 3.985-2.411 12.4217-1.49 41.0825-4.923 63.4475-7.605-6.693-2.462-12.772-5.119-17.986-7.95-12.195-6.621-19.8595-14.661-21.9198-22.947-6.7501-27.166 7.5958-52.7308 52.4658-76.417 0 0 7.218-3.8094 11.818-6.2389.653-.3434 1.449-.2721 2.028.1879.58.4535.834 1.2115.65 1.9307-1.3 5.0339-3.339 12.9378-3.339 12.9378-3.405 13.1906-3.534 21.7555.861 27.2235 3.122 3.887 8.3 5.792 14.882 7.081 3.67.72 7.731 1.193 12.149 1.497z" fill="#1e1e1e"/><path d="m305.538 255.201s2.287-8.04 3.881-13.67c.363-1.25 1.367-2.216 2.643-2.514 1.27-.298 2.605.117 3.486 1.082 4.788 5.267 6.958 12.407 4.982 19.365-1.918 6.751-7.243 11.597-13.826 13.664-1.36.421-2.85.065-3.868-.933-1.023-.991-1.418-2.469-1.023-3.842 1.581-5.585 3.725-13.152 3.725-13.152zm-121.256-15.069c.881-.972 2.21-1.387 3.486-1.089 1.27.292 2.28 1.257 2.643 2.514 1.613 5.617 3.907 13.644 3.907 13.644s2.164 7.561 3.758 13.146c.395 1.367.006 2.844-1.018 3.848-1.017.998-2.5 1.354-3.861.933-6.589-2.048-11.927-6.887-13.858-13.632-1.989-6.945.156-14.084 4.943-19.364z" fill="#f0e600"/><path d="m288.188 316.479c.84-4.2-.249-8.552-2.97-11.862-2.721-3.311-6.779-5.231-11.055-5.231-14.165-.001-34.114-.001-48.357-.001-4.338 0-8.459 1.96-11.195 5.336-2.737 3.374-3.81 7.804-2.924 12.058 3.53 16.732 18.302 28.708 35.405 28.708 1.897.005 3.81.005 5.707.005 17.197 0 31.999-12.136 35.389-29 0-.002 0-.002 0-.013zm-75.817-48.579c1.757 8.003 8.848 13.708 17.042 13.708 11.848.017 28.735.017 40.583.017 8.163 0 15.238-5.649 17.026-13.607 3.84-19.677 8.225-49.882 10.324-74.985.451-5.835-2.721-11.35-7.976-13.902-7.37-3.363-19.778-7.144-38.53-7.144-19.281 0-32.42 4-40.179 7.468-5.302 2.471-8.552 7.94-8.179 13.778 1.742 24.714 5.862 54.159 9.889 74.667z" fill="#e7e7d3"/></g></svg>

<svg width="500" height="500" viewBox="0 0 500 500" fill="none" xmlns="http://www.w3.org/2000/svg">
<rect x="6" y="6" width="488" height="488" rx="110" fill="#F0E600"/>
<g clip-path="url(#clip0_38_44)">
<path fill-rule="evenodd" clip-rule="evenodd" d="M187.891 117.441C194.91 108.662 201.999 100.875 208.947 94.3315C209.175 94.0918 232.596 69.7835 271.285 56.1004C271.867 55.8996 272.517 55.9967 273.005 56.3595C273.493 56.7223 273.748 57.2992 273.679 57.8887C273.129 62.5923 272.051 71.7594 272.051 71.7594C280.242 72.6341 287.82 76.1325 291.175 77.8753C291.614 78.115 291.915 78.5298 291.991 79.0028C292.068 79.4822 291.912 79.9679 291.568 80.3178C289.033 82.9417 283.964 88.1573 283.955 88.1638C293.073 95.7633 302.575 105.721 311.95 117.441C316.384 117.137 320.458 116.663 324.138 115.938C330.706 114.642 335.872 112.744 338.987 108.857C343.375 103.389 343.244 94.8237 339.841 81.6395C339.841 81.6395 337.802 73.7356 336.502 68.7017C336.318 67.9825 336.572 67.2245 337.152 66.771C337.731 66.311 338.527 66.2397 339.18 66.5831C343.781 69.0126 350.998 72.822 350.998 72.822C395.868 96.5082 410.214 122.073 403.464 149.239C401.403 157.531 393.736 165.571 381.537 172.193C376.325 175.024 370.249 177.674 363.558 180.136C385.923 182.818 414.584 186.251 427.005 187.741C428.646 187.936 430.108 188.824 430.99 190.152C431.873 191.486 432.083 193.125 431.563 194.622C424.968 213.825 405.996 227.722 383.646 227.722C379.265 227.722 375.013 227.184 370.957 226.18C378.396 248.013 390.853 291.368 385.88 357.568C385.848 358.002 385.599 358.391 385.211 358.624C384.822 358.858 384.342 358.896 383.918 358.734C379.943 357.205 370.838 353.7 370.838 353.7C367.617 370.098 361.895 383.14 359.64 387.882C359.442 388.271 359.039 388.537 358.584 388.562C358.129 388.595 357.691 388.394 357.438 388.031C355.048 384.636 350.078 377.568 350.078 377.568L350.05 377.51C321.575 419.466 260.923 443.534 249.92 443.534C238.917 443.534 179.7 419.764 149.762 377.568C149.762 377.568 144.792 384.636 142.403 388.031C142.148 388.394 141.711 388.595 141.256 388.562C140.801 388.537 140.398 388.271 140.2 387.882C137.945 383.14 132.223 370.098 129.002 353.7C129.002 353.7 119.897 357.205 115.922 358.734C115.498 358.896 115.017 358.858 114.629 358.624C114.241 358.391 113.992 358.002 113.959 357.568C108.977 291.239 121.444 248.013 128.883 226.18C124.827 227.184 120.575 227.722 116.194 227.722C93.8437 227.722 74.8721 213.825 68.2768 194.622C67.7572 193.125 67.9671 191.486 68.8495 190.152C69.7319 188.824 71.1941 187.936 72.8345 187.741C85.2562 186.251 113.917 182.818 136.282 180.136C129.589 177.674 123.51 175.017 118.296 172.186C106.101 165.565 98.4365 157.525 96.3762 149.239C89.6261 122.073 103.972 96.5082 148.842 72.822C148.842 72.822 156.06 69.0126 160.66 66.5831C161.313 66.2397 162.109 66.311 162.688 66.771C163.268 67.2245 163.522 67.9825 163.338 68.7017C162.038 73.7356 159.999 81.6395 159.999 81.6395C156.594 94.8301 156.465 103.395 160.86 108.863C163.982 112.75 169.16 114.655 175.742 115.944C179.412 116.664 183.473 117.137 187.891 117.441Z" fill="#1E1E1E"/>
<path fill-rule="evenodd" clip-rule="evenodd" d="M305.538 255.201C305.538 255.201 307.825 247.161 309.419 241.531C309.782 240.281 310.786 239.315 312.062 239.017C313.332 238.719 314.667 239.134 315.548 240.099C320.336 245.366 322.506 252.506 320.53 259.464C318.612 266.215 313.287 271.061 306.704 273.128C305.344 273.549 303.854 273.193 302.836 272.195C301.813 271.204 301.418 269.726 301.813 268.353C303.394 262.768 305.538 255.201 305.538 255.201ZM184.282 240.132C185.163 239.16 186.492 238.745 187.768 239.043C189.038 239.335 190.048 240.3 190.411 241.557C192.024 247.174 194.318 255.201 194.318 255.201C194.318 255.201 196.482 262.762 198.076 268.347C198.471 269.714 198.082 271.191 197.058 272.195C196.041 273.193 194.558 273.549 193.197 273.128C186.608 271.08 181.27 266.241 179.339 259.496C177.35 252.551 179.495 245.412 184.282 240.132Z" fill="#F0E600"/>
<path fill-rule="evenodd" clip-rule="evenodd" d="M288.188 316.479C289.028 312.279 287.939 307.927 285.218 304.617C282.497 301.306 278.439 299.386 274.163 299.386C259.998 299.385 240.049 299.385 225.806 299.385C221.468 299.385 217.347 301.345 214.611 304.721C211.874 308.095 210.801 312.525 211.687 316.779C215.217 333.511 229.989 345.487 247.092 345.487C248.989 345.492 250.902 345.492 252.799 345.492C269.996 345.492 284.798 333.356 288.188 316.492C288.188 316.49 288.188 316.49 288.188 316.479ZM212.371 267.9C214.128 275.903 221.219 281.608 229.413 281.608C241.261 281.625 258.148 281.625 269.996 281.625C278.159 281.625 285.234 275.976 287.022 268.018C290.862 248.341 295.247 218.136 297.346 193.033C297.797 187.198 294.625 181.683 289.37 179.131C282 175.768 269.592 171.987 250.84 171.987C231.559 171.987 218.42 175.987 210.661 179.455C205.359 181.926 202.109 187.395 202.482 193.233C204.224 217.947 208.344 247.392 212.371 267.9Z" fill="#E7E7D3"/>
</g>
<defs>
<clipPath id="clip0_38_44">
<rect width="364" height="387.634" fill="white" transform="translate(68 56)"/>
</clipPath>
</defs>
</svg>
